(Exported by FreeCAD)
(Post Processor: grbl_post)
(Output Time:2021-04-06 17:57:30.442495)
(begin preamble)
G17 G90
G21
(begin operation: Default Tool)
(Path: Default Tool)
(Default Tool)
(begin toolchange)
; M6 T1
M3 S0.0000
(finish operation: Default Tool)
(begin operation: Profile_EdgesApproxCut1)
(Path: Profile_EdgesApproxCut1)
(Profile_Edges)
(Compensated Tool Path. Diameter: 2.0)
G0 Z5.0000
G0 X0.6229 Y10.5029
G0 Z3.0000
G1 X0.6229 Y10.5029 Z-1.5000 F120.00
G2 X1.3000 Y8.8800 Z-1.5000 I-1.6348 J-1.6348 F120.00
G1 X1.3000 Y1.0000 Z-1.5000 F120.00
G2 X-1.0000 Y-1.3000 Z-1.5000 I-2.3119 J0.0119 F120.00
G1 X-37.8000 Y-1.3000 Z-1.5000 F120.00
G2 X-40.1000 Y1.0000 Z-1.5000 I0.0119 J2.3119 F120.00
G1 X-40.1000 Y8.8800 Z-1.5000 F120.00
G2 X-37.8000 Y11.1800 Z-1.5000 I2.3119 J-0.0119 F120.00
G1 X-1.0000 Y11.1800 Z-1.5000 F120.00
G2 X0.6229 Y10.5029 Z-1.5000 I-0.0119 J-2.3119 F120.00
G1 X0.6229 Y10.5029 Z-3.0000 F120.00
G2 X1.3000 Y8.8800 Z-3.0000 I-1.6348 J-1.6348 F120.00
G1 X1.3000 Y1.0000 Z-3.0000 F120.00
G2 X-1.0000 Y-1.3000 Z-3.0000 I-2.3119 J0.0119 F120.00
G1 X-37.8000 Y-1.3000 Z-3.0000 F120.00
G2 X-40.1000 Y1.0000 Z-3.0000 I0.0119 J2.3119 F120.00
G1 X-40.1000 Y8.8800 Z-3.0000 F120.00
G2 X-37.8000 Y11.1800 Z-3.0000 I2.3119 J-0.0119 F120.00
G1 X-1.0000 Y11.1800 Z-3.0000 F120.00
G2 X0.6229 Y10.5029 Z-3.0000 I-0.0119 J-2.3119 F120.00
G0 Z5.0000
(finish operation: Profile_EdgesApproxCut1)
(begin operation: Profile_EdgesFinish1)
(Path: Profile_EdgesFinish1)
(Profile_EdgesFinish1)
(Compensated Tool Path. Diameter: 2.0)
G0 Z5.0000
G0 X2.0000 Y1.0000
G0 Z-3.0000
G1 X1.0000 Y1.0000 Z-3.0000 F120.00
G1 X0.9914 Y9.0105 Z-3.0000 F120.00
G3 X-1.0000 Y10.8800 Z-3.0000 I-1.9994 J-0.1345 F120.00
G1 X-37.9305 Y10.8714 Z-3.0000 F120.00
G3 X-39.8000 Y8.8800 Z-3.0000 I0.1345 J-1.9994 F120.00
G1 X-39.7914 Y0.8695 Z-3.0000 F120.00
G3 X-37.8000 Y-1.0000 Z-3.0000 I1.9994 J0.1345 F120.00
G1 X-0.8695 Y-0.9914 Z-3.0000 F120.00
G3 X1.0000 Y1.0000 Z-3.0000 I-0.1345 J1.9994 F120.00
G0 Z5.0000
(finish operation: Profile_EdgesFinish1)
(begin operation: Profile_EdgesApproxCut2)
(Path: Profile_EdgesApproxCut2)
(Profile_Edges002)
(Compensated Tool Path. Diameter: 2.0)
G0 Z5.0000
G0 X0.6229 Y26.9829
G0 Z3.0000
G1 X0.6229 Y26.9829 Z-1.5000 F120.00
G2 X1.3000 Y25.3600 Z-1.5000 I-1.6348 J-1.6348 F120.00
G1 X1.3000 Y15.8800 Z-1.5000 F120.00
G2 X-1.0000 Y13.5800 Z-1.5000 I-2.3119 J0.0119 F120.00
G1 X-37.8000 Y13.5800 Z-1.5000 F120.00
G2 X-40.1000 Y15.8800 Z-1.5000 I0.0119 J2.3119 F120.00
G1 X-40.1000 Y25.3600 Z-1.5000 F120.00
G2 X-37.8000 Y27.6600 Z-1.5000 I2.3119 J-0.0119 F120.00
G1 X-1.0000 Y27.6600 Z-1.5000 F120.00
G2 X0.6229 Y26.9829 Z-1.5000 I-0.0119 J-2.3119 F120.00
G1 X0.6229 Y26.9829 Z-3.0000 F120.00
G2 X1.3000 Y25.3600 Z-3.0000 I-1.6348 J-1.6348 F120.00
G1 X1.3000 Y15.8800 Z-3.0000 F120.00
G2 X-1.0000 Y13.5800 Z-3.0000 I-2.3119 J0.0119 F120.00
G1 X-37.8000 Y13.5800 Z-3.0000 F120.00
G2 X-40.1000 Y15.8800 Z-3.0000 I0.0119 J2.3119 F120.00
G1 X-40.1000 Y25.3600 Z-3.0000 F120.00
G2 X-37.8000 Y27.6600 Z-3.0000 I2.3119 J-0.0119 F120.00
G1 X-1.0000 Y27.6600 Z-3.0000 F120.00
G2 X0.6229 Y26.9829 Z-3.0000 I-0.0119 J-2.3119 F120.00
G0 Z5.0000
(finish operation: Profile_EdgesApproxCut2)
(begin operation: Profile_EdgesFinish2)
(Path: Profile_EdgesFinish2)
(Profile_EdgesFinish2)
(Compensated Tool Path. Diameter: 2.0)
G0 Z5.0000
G0 X2.0000 Y15.0000
G0 Z-3.0000
G1 X0.9178 Y15.3199 Z-3.0000 F120.00
G3 X1.0000 Y15.8800 Z-3.0000 I-1.9218 J0.5681 F120.00
G1 X0.9914 Y25.4905 Z-3.0000 F120.00
G3 X-1.0000 Y27.3600 Z-3.0000 I-1.9994 J-0.1345 F120.00
G1 X-37.9305 Y27.3514 Z-3.0000 F120.00
G3 X-39.8000 Y25.3600 Z-3.0000 I0.1345 J-1.9994 F120.00
G1 X-39.7914 Y15.7495 Z-3.0000 F120.00
G3 X-37.8000 Y13.8800 Z-3.0000 I1.9994 J0.1345 F120.00
G1 X-0.8695 Y13.8886 Z-3.0000 F120.00
G3 X0.9178 Y15.3199 Z-3.0000 I-0.1345 J1.9994 F120.00
G0 Z5.0000
(finish operation: Profile_EdgesFinish2)
(begin operation: Profile_EdgesCutout1)
(Path: Profile_EdgesCutout1)
(Profile_Edges004)
(Compensated Tool Path. Diameter: 2.0)
G0 Z5.0000
G0 X1.1172 Y27.4772
G0 Z3.0000
G1 X1.1172 Y27.4772 Z-1.5000 F120.00
G2 X2.0000 Y25.3600 Z-1.5000 I-2.1313 J-2.1313 F120.00
G1 X2.0000 Y15.8800 Z-1.5000 F120.00
G2 X-1.0000 Y12.8800 Z-1.5000 I-3.0140 J0.0140 F120.00
G1 X-37.8000 Y12.8800 Z-1.5000 F120.00
G2 X-40.8000 Y15.8800 Z-1.5000 I0.0140 J3.0140 F120.00
G1 X-40.8000 Y25.3600 Z-1.5000 F120.00
G2 X-37.8000 Y28.3600 Z-1.5000 I3.0140 J-0.0140 F120.00
G1 X-1.0000 Y28.3600 Z-1.5000 F120.00
G2 X1.1172 Y27.4772 Z-1.5000 I-0.0140 J-3.0140 F120.00
G1 X1.1172 Y27.4772 Z-3.0000 F120.00
G2 X2.0000 Y25.3600 Z-3.0000 I-2.1313 J-2.1313 F120.00
G1 X2.0000 Y15.8800 Z-3.0000 F120.00
G2 X-1.0000 Y12.8800 Z-3.0000 I-3.0140 J0.0140 F120.00
G1 X-37.8000 Y12.8800 Z-3.0000 F120.00
G2 X-40.8000 Y15.8800 Z-3.0000 I0.0140 J3.0140 F120.00
G1 X-40.8000 Y25.3600 Z-3.0000 F120.00
G2 X-37.8000 Y28.3600 Z-3.0000 I3.0140 J-0.0140 F120.00
G1 X-1.0000 Y28.3600 Z-3.0000 F120.00
G2 X1.1172 Y27.4772 Z-3.0000 I-0.0140 J-3.0140 F120.00
G1 X1.1172 Y27.4772 Z-4.3000 F120.00
G2 X2.0000 Y25.3600 Z-4.3000 I-2.1313 J-2.1313 F120.00
G1 X2.0000 Y15.8800 Z-4.3000 F120.00
G2 X-1.0000 Y12.8800 Z-4.3000 I-3.0140 J0.0140 F120.00
G1 X-37.8000 Y12.8800 Z-4.3000 F120.00
G2 X-40.8000 Y15.8800 Z-4.3000 I0.0140 J3.0140 F120.00
G1 X-40.8000 Y25.3600 Z-4.3000 F120.00
G2 X-37.8000 Y28.3600 Z-4.3000 I3.0140 J-0.0140 F120.00
G1 X-1.0000 Y28.3600 Z-4.3000 F120.00
G2 X1.1172 Y27.4772 Z-4.3000 I-0.0140 J-3.0140 F120.00
G0 Z5.0000
(finish operation: Profile_EdgesCutout1)
(begin operation: Profile_EdgesCutout2)
(Path: Profile_EdgesCutout2)
(Profile_Edges005)
(Compensated Tool Path. Diameter: 2.0)
G0 Z5.0000
G0 X1.1172 Y10.9972
G0 Z3.0000
G1 X1.1172 Y10.9972 Z-1.5000 F120.00
G2 X2.0000 Y8.8800 Z-1.5000 I-2.1313 J-2.1313 F120.00
G1 X2.0000 Y1.0000 Z-1.5000 F120.00
G2 X-1.0000 Y-2.0000 Z-1.5000 I-3.0140 J0.0140 F120.00
G1 X-37.8000 Y-2.0000 Z-1.5000 F120.00
G2 X-40.8000 Y1.0000 Z-1.5000 I0.0140 J3.0140 F120.00
G1 X-40.8000 Y8.8800 Z-1.5000 F120.00
G2 X-37.8000 Y11.8800 Z-1.5000 I3.0140 J-0.0140 F120.00
G1 X-1.0000 Y11.8800 Z-1.5000 F120.00
G2 X1.1172 Y10.9972 Z-1.5000 I-0.0140 J-3.0140 F120.00
G1 X1.1172 Y10.9972 Z-3.0000 F120.00
G2 X2.0000 Y8.8800 Z-3.0000 I-2.1313 J-2.1313 F120.00
G1 X2.0000 Y1.0000 Z-3.0000 F120.00
G2 X-1.0000 Y-2.0000 Z-3.0000 I-3.0140 J0.0140 F120.00
G1 X-37.8000 Y-2.0000 Z-3.0000 F120.00
G2 X-40.8000 Y1.0000 Z-3.0000 I0.0140 J3.0140 F120.00
G1 X-40.8000 Y8.8800 Z-3.0000 F120.00
G2 X-37.8000 Y11.8800 Z-3.0000 I3.0140 J-0.0140 F120.00
G1 X-1.0000 Y11.8800 Z-3.0000 F120.00
G2 X1.1172 Y10.9972 Z-3.0000 I-0.0140 J-3.0140 F120.00
G1 X1.1172 Y10.9972 Z-4.3000 F120.00
G2 X2.0000 Y8.8800 Z-4.3000 I-2.1313 J-2.1313 F120.00
G1 X2.0000 Y1.0000 Z-4.3000 F120.00
G2 X-1.0000 Y-2.0000 Z-4.3000 I-3.0140 J0.0140 F120.00
G1 X-37.8000 Y-2.0000 Z-4.3000 F120.00
G2 X-40.8000 Y1.0000 Z-4.3000 I0.0140 J3.0140 F120.00
G1 X-40.8000 Y8.8800 Z-4.3000 F120.00
G2 X-37.8000 Y11.8800 Z-4.3000 I3.0140 J-0.0140 F120.00
G1 X-1.0000 Y11.8800 Z-4.3000 F120.00
G2 X1.1172 Y10.9972 Z-4.3000 I-0.0140 J-3.0140 F120.00
G0 Z5.0000
(finish operation: Profile_EdgesCutout2)
(begin postamble)
M5
G17 G90
; M2
