(Exported by FreeCAD)
(Post Processor: grbl_G81_post)
(Output Time:2021-03-07 13:32:32.468985)
(begin preamble)
G17 G90
G21
(begin operation: Default Tool)
(Path: Default Tool)
(Default Tool)
(begin toolchange)
(M6 T1.0)
M3 S0.000
(finish operation: Default Tool)
(begin operation: Profile_EdgesInnerJack)
(Path: Profile_EdgesInnerJack)
(Profile_EdgesInnerJack)
(Compensated Tool Path. Diameter: 2.0)
G0 Z1.000
G0 X1.766 Y1.766
G1 X1.766 Y1.766 Z-1.700 F120.00
G2 X0.912 Y-2.325 Z-1.700 I-1.766 J-1.766 K0.000 F120.00
G2 X-0.912 Y2.325 Z-1.700 I-0.912 J2.325 K0.000 F120.00
G2 X1.766 Y1.766 Z-1.700 I0.912 J-2.325 K0.000 F120.00
G1 X1.766 Y1.766 Z-3.400 F120.00
G2 X0.912 Y-2.325 Z-3.400 I-1.766 J-1.766 K0.000 F120.00
G2 X-0.912 Y2.325 Z-3.400 I-0.912 J2.325 K0.000 F120.00
G2 X1.766 Y1.766 Z-3.400 I0.912 J-2.325 K0.000 F120.00
G0 Z1.000
G0 X-14.273 Y2.427
G1 X-14.273 Y2.427 Z-1.700 F120.00
G2 X-15.865 Y-4.202 Z-1.700 I-2.827 J-2.827 K0.000 F120.00
G2 X-20.902 Y-1.635 Z-1.700 I-1.235 J3.802 K0.000 F120.00
G2 X-18.335 Y3.402 Z-1.700 I3.802 J1.235 K0.000 F120.00
G2 X-14.273 Y2.427 Z-1.700 I1.235 J-3.802 K0.000 F120.00
G1 X-14.273 Y2.427 Z-3.400 F120.00
G2 X-15.865 Y-4.202 Z-3.400 I-2.827 J-2.827 K0.000 F120.00
G2 X-20.902 Y-1.635 Z-3.400 I-1.235 J3.802 K0.000 F120.00
G2 X-18.335 Y3.402 Z-3.400 I3.802 J1.235 K0.000 F120.00
G2 X-14.273 Y2.427 Z-3.400 I1.235 J-3.802 K0.000 F120.00
G0 Z1.000
G0 X-34.773 Y2.427
G1 X-34.773 Y2.427 Z-1.700 F120.00
G2 X-36.365 Y-4.202 Z-1.700 I-2.827 J-2.827 K0.000 F120.00
G2 X-41.402 Y-1.635 Z-1.700 I-1.235 J3.802 K0.000 F120.00
G2 X-38.835 Y3.402 Z-1.700 I3.802 J1.235 K0.000 F120.00
G2 X-34.773 Y2.427 Z-1.700 I1.235 J-3.802 K0.000 F120.00
G1 X-34.773 Y2.427 Z-3.400 F120.00
G2 X-36.365 Y-4.202 Z-3.400 I-2.827 J-2.827 K0.000 F120.00
G2 X-41.402 Y-1.635 Z-3.400 I-1.235 J3.802 K0.000 F120.00
G2 X-38.835 Y3.402 Z-3.400 I3.802 J1.235 K0.000 F120.00
G2 X-34.773 Y2.427 Z-3.400 I1.235 J-3.802 K0.000 F120.00
G0 Z1.000
G0 X-55.273 Y2.427
G1 X-55.273 Y2.427 Z-1.700 F120.00
G2 X-56.865 Y-4.202 Z-1.700 I-2.827 J-2.827 K0.000 F120.00
G2 X-61.902 Y-1.635 Z-1.700 I-1.235 J3.802 K0.000 F120.00
G2 X-59.335 Y3.402 Z-1.700 I3.802 J1.235 K0.000 F120.00
G2 X-55.273 Y2.427 Z-1.700 I1.235 J-3.802 K0.000 F120.00
G1 X-55.273 Y2.427 Z-3.400 F120.00
G2 X-56.865 Y-4.202 Z-3.400 I-2.827 J-2.827 K0.000 F120.00
G2 X-61.902 Y-1.635 Z-3.400 I-1.235 J3.802 K0.000 F120.00
G2 X-59.335 Y3.402 Z-3.400 I3.802 J1.235 K0.000 F120.00
G2 X-55.273 Y2.427 Z-3.400 I1.235 J-3.802 K0.000 F120.00
G0 Z1.000
G0 X-75.773 Y2.427
G1 X-75.773 Y2.427 Z-1.700 F120.00
G2 X-77.365 Y-4.202 Z-1.700 I-2.827 J-2.827 K0.000 F120.00
G2 X-82.402 Y-1.635 Z-1.700 I-1.235 J3.802 K0.000 F120.00
G2 X-79.835 Y3.402 Z-1.700 I3.802 J1.235 K0.000 F120.00
G2 X-75.773 Y2.427 Z-1.700 I1.235 J-3.802 K0.000 F120.00
G1 X-75.773 Y2.427 Z-3.400 F120.00
G2 X-77.365 Y-4.202 Z-3.400 I-2.827 J-2.827 K0.000 F120.00
G2 X-82.402 Y-1.635 Z-3.400 I-1.235 J3.802 K0.000 F120.00
G2 X-79.835 Y3.402 Z-3.400 I3.802 J1.235 K0.000 F120.00
G2 X-75.773 Y2.427 Z-3.400 I1.235 J-3.802 K0.000 F120.00
G0 Z1.000
G0 X-75.773 Y-11.573
G1 X-75.773 Y-11.573 Z-1.700 F120.00
G2 X-77.365 Y-18.202 Z-1.700 I-2.827 J-2.827 K0.000 F120.00
G2 X-82.402 Y-15.635 Z-1.700 I-1.235 J3.802 K0.000 F120.00
G2 X-79.835 Y-10.598 Z-1.700 I3.802 J1.235 K0.000 F120.00
G2 X-75.773 Y-11.573 Z-1.700 I1.235 J-3.802 K0.000 F120.00
G1 X-75.773 Y-11.573 Z-3.400 F120.00
G2 X-77.365 Y-18.202 Z-3.400 I-2.827 J-2.827 K0.000 F120.00
G2 X-82.402 Y-15.635 Z-3.400 I-1.235 J3.802 K0.000 F120.00
G2 X-79.835 Y-10.598 Z-3.400 I3.802 J1.235 K0.000 F120.00
G2 X-75.773 Y-11.573 Z-3.400 I1.235 J-3.802 K0.000 F120.00
G0 Z1.000
G0 X-55.273 Y-11.573
G1 X-55.273 Y-11.573 Z-1.700 F120.00
G2 X-56.865 Y-18.202 Z-1.700 I-2.827 J-2.827 K0.000 F120.00
G2 X-61.902 Y-15.635 Z-1.700 I-1.235 J3.802 K0.000 F120.00
G2 X-59.335 Y-10.598 Z-1.700 I3.802 J1.235 K0.000 F120.00
G2 X-55.273 Y-11.573 Z-1.700 I1.235 J-3.802 K0.000 F120.00
G1 X-55.273 Y-11.573 Z-3.400 F120.00
G2 X-56.865 Y-18.202 Z-3.400 I-2.827 J-2.827 K0.000 F120.00
G2 X-61.902 Y-15.635 Z-3.400 I-1.235 J3.802 K0.000 F120.00
G2 X-59.335 Y-10.598 Z-3.400 I3.802 J1.235 K0.000 F120.00
G2 X-55.273 Y-11.573 Z-3.400 I1.235 J-3.802 K0.000 F120.00
G0 Z1.000
G0 X-34.773 Y-11.573
G1 X-34.773 Y-11.573 Z-1.700 F120.00
G2 X-36.365 Y-18.202 Z-1.700 I-2.827 J-2.827 K0.000 F120.00
G2 X-41.402 Y-15.635 Z-1.700 I-1.235 J3.802 K0.000 F120.00
G2 X-38.835 Y-10.598 Z-1.700 I3.802 J1.235 K0.000 F120.00
G2 X-34.773 Y-11.573 Z-1.700 I1.235 J-3.802 K0.000 F120.00
G1 X-34.773 Y-11.573 Z-3.400 F120.00
G2 X-36.365 Y-18.202 Z-3.400 I-2.827 J-2.827 K0.000 F120.00
G2 X-41.402 Y-15.635 Z-3.400 I-1.235 J3.802 K0.000 F120.00
G2 X-38.835 Y-10.598 Z-3.400 I3.802 J1.235 K0.000 F120.00
G2 X-34.773 Y-11.573 Z-3.400 I1.235 J-3.802 K0.000 F120.00
G0 Z1.000
G0 X-14.273 Y-11.573
G1 X-14.273 Y-11.573 Z-1.700 F120.00
G2 X-13.228 Y-13.406 Z-1.700 I-2.827 J-2.827 K0.000 F120.00
G2 X-20.972 Y-15.394 Z-1.700 I-3.872 J-0.994 K0.000 F120.00
G2 X-14.273 Y-11.573 Z-1.700 I3.872 J0.994 K0.000 F120.00
G1 X-14.273 Y-11.573 Z-3.400 F120.00
G2 X-13.228 Y-13.406 Z-3.400 I-2.827 J-2.827 K0.000 F120.00
G2 X-20.972 Y-15.394 Z-3.400 I-3.872 J-0.994 K0.000 F120.00
G2 X-14.273 Y-11.573 Z-3.400 I3.872 J0.994 K0.000 F120.00
G0 Z1.000
G0 X-14.273 Y-29.173
G1 X-14.273 Y-29.173 Z-1.700 F120.00
G2 X-15.865 Y-35.802 Z-1.700 I-2.827 J-2.827 K0.000 F120.00
G2 X-20.902 Y-33.235 Z-1.700 I-1.235 J3.802 K0.000 F120.00
G2 X-18.335 Y-28.198 Z-1.700 I3.802 J1.235 K0.000 F120.00
G2 X-14.273 Y-29.173 Z-1.700 I1.235 J-3.802 K0.000 F120.00
G1 X-14.273 Y-29.173 Z-3.400 F120.00
G2 X-15.865 Y-35.802 Z-3.400 I-2.827 J-2.827 K0.000 F120.00
G2 X-20.902 Y-33.235 Z-3.400 I-1.235 J3.802 K0.000 F120.00
G2 X-18.335 Y-28.198 Z-3.400 I3.802 J1.235 K0.000 F120.00
G2 X-14.273 Y-29.173 Z-3.400 I1.235 J-3.802 K0.000 F120.00
G0 Z1.000
G0 X-34.773 Y-29.173
G1 X-34.773 Y-29.173 Z-1.700 F120.00
G2 X-33.728 Y-31.006 Z-1.700 I-2.827 J-2.827 K0.000 F120.00
G2 X-41.472 Y-32.994 Z-1.700 I-3.872 J-0.994 K0.000 F120.00
G2 X-34.773 Y-29.173 Z-1.700 I3.872 J0.994 K0.000 F120.00
G1 X-34.773 Y-29.173 Z-3.400 F120.00
G2 X-33.728 Y-31.006 Z-3.400 I-2.827 J-2.827 K0.000 F120.00
G2 X-41.472 Y-32.994 Z-3.400 I-3.872 J-0.994 K0.000 F120.00
G2 X-34.773 Y-29.173 Z-3.400 I3.872 J0.994 K0.000 F120.00
G0 Z1.000
G0 X-55.273 Y-29.173
G1 X-55.273 Y-29.173 Z-1.700 F120.00
G2 X-54.228 Y-31.006 Z-1.700 I-2.827 J-2.827 K0.000 F120.00
G2 X-61.972 Y-32.994 Z-1.700 I-3.872 J-0.994 K0.000 F120.00
G2 X-55.273 Y-29.173 Z-1.700 I3.872 J0.994 K0.000 F120.00
G1 X-55.273 Y-29.173 Z-3.400 F120.00
G2 X-54.228 Y-31.006 Z-3.400 I-2.827 J-2.827 K0.000 F120.00
G2 X-61.972 Y-32.994 Z-3.400 I-3.872 J-0.994 K0.000 F120.00
G2 X-55.273 Y-29.173 Z-3.400 I3.872 J0.994 K0.000 F120.00
G0 Z1.000
G0 X-75.773 Y-29.173
G1 X-75.773 Y-29.173 Z-1.700 F120.00
G2 X-77.365 Y-35.802 Z-1.700 I-2.827 J-2.827 K0.000 F120.00
G2 X-82.402 Y-33.235 Z-1.700 I-1.235 J3.802 K0.000 F120.00
G2 X-79.835 Y-28.198 Z-1.700 I3.802 J1.235 K0.000 F120.00
G2 X-75.773 Y-29.173 Z-1.700 I1.235 J-3.802 K0.000 F120.00
G1 X-75.773 Y-29.173 Z-3.400 F120.00
G2 X-77.365 Y-35.802 Z-3.400 I-2.827 J-2.827 K0.000 F120.00
G2 X-82.402 Y-33.235 Z-3.400 I-1.235 J3.802 K0.000 F120.00
G2 X-79.835 Y-28.198 Z-3.400 I3.802 J1.235 K0.000 F120.00
G2 X-75.773 Y-29.173 Z-3.400 I1.235 J-3.802 K0.000 F120.00
G0 Z1.000
G0 X-75.773 Y-43.173
G1 X-75.773 Y-43.173 Z-1.700 F120.00
G2 X-77.365 Y-49.802 Z-1.700 I-2.827 J-2.827 K0.000 F120.00
G2 X-82.402 Y-47.235 Z-1.700 I-1.235 J3.802 K0.000 F120.00
G2 X-79.835 Y-42.198 Z-1.700 I3.802 J1.235 K0.000 F120.00
G2 X-75.773 Y-43.173 Z-1.700 I1.235 J-3.802 K0.000 F120.00
G1 X-75.773 Y-43.173 Z-3.400 F120.00
G2 X-77.365 Y-49.802 Z-3.400 I-2.827 J-2.827 K0.000 F120.00
G2 X-82.402 Y-47.235 Z-3.400 I-1.235 J3.802 K0.000 F120.00
G2 X-79.835 Y-42.198 Z-3.400 I3.802 J1.235 K0.000 F120.00
G2 X-75.773 Y-43.173 Z-3.400 I1.235 J-3.802 K0.000 F120.00
G0 Z1.000
G0 X-55.273 Y-43.173
G1 X-55.273 Y-43.173 Z-1.700 F120.00
G2 X-56.865 Y-49.802 Z-1.700 I-2.827 J-2.827 K0.000 F120.00
G2 X-61.902 Y-47.235 Z-1.700 I-1.235 J3.802 K0.000 F120.00
G2 X-59.335 Y-42.198 Z-1.700 I3.802 J1.235 K0.000 F120.00
G2 X-55.273 Y-43.173 Z-1.700 I1.235 J-3.802 K0.000 F120.00
G1 X-55.273 Y-43.173 Z-3.400 F120.00
G2 X-56.865 Y-49.802 Z-3.400 I-2.827 J-2.827 K0.000 F120.00
G2 X-61.902 Y-47.235 Z-3.400 I-1.235 J3.802 K0.000 F120.00
G2 X-59.335 Y-42.198 Z-3.400 I3.802 J1.235 K0.000 F120.00
G2 X-55.273 Y-43.173 Z-3.400 I1.235 J-3.802 K0.000 F120.00
G0 Z1.000
G0 X-34.773 Y-43.173
G1 X-34.773 Y-43.173 Z-1.700 F120.00
G2 X-33.728 Y-45.006 Z-1.700 I-2.827 J-2.827 K0.000 F120.00
G2 X-41.472 Y-46.994 Z-1.700 I-3.872 J-0.994 K0.000 F120.00
G2 X-34.773 Y-43.173 Z-1.700 I3.872 J0.994 K0.000 F120.00
G1 X-34.773 Y-43.173 Z-3.400 F120.00
G2 X-33.728 Y-45.006 Z-3.400 I-2.827 J-2.827 K0.000 F120.00
G2 X-41.472 Y-46.994 Z-3.400 I-3.872 J-0.994 K0.000 F120.00
G2 X-34.773 Y-43.173 Z-3.400 I3.872 J0.994 K0.000 F120.00
G0 Z1.000
G0 X-14.273 Y-43.173
G1 X-14.273 Y-43.173 Z-1.700 F120.00
G2 X-13.228 Y-45.006 Z-1.700 I-2.827 J-2.827 K0.000 F120.00
G2 X-20.972 Y-46.994 Z-1.700 I-3.872 J-0.994 K0.000 F120.00
G2 X-14.273 Y-43.173 Z-1.700 I3.872 J0.994 K0.000 F120.00
G1 X-14.273 Y-43.173 Z-3.400 F120.00
G2 X-13.228 Y-45.006 Z-3.400 I-2.827 J-2.827 K0.000 F120.00
G2 X-20.972 Y-46.994 Z-3.400 I-3.872 J-0.994 K0.000 F120.00
G2 X-14.273 Y-43.173 Z-3.400 I3.872 J0.994 K0.000 F120.00
G0 Z1.000
(finish operation: Profile_EdgesInnerJack)
(begin operation: Profile_EdgesOuterJack)
(Path: Profile_EdgesOuterJack)
(Profile_EdgesOuterJack)
(Compensated Tool Path. Diameter: 2.0)
G0 Z1.000
G0 X-13.212 Y-42.112
G1 X-13.212 Y-42.112 Z-1.500 F120.00
G2 X-15.629 Y-51.298 Z-1.500 I-3.888 J-3.888 K0.000 F120.00
G2 X-22.398 Y-47.471 Z-1.500 I-1.471 J5.298 K0.000 F120.00
G2 X-18.571 Y-40.702 Z-1.500 I5.298 J1.471 K0.000 F120.00
G2 X-13.212 Y-42.112 Z-1.500 I1.471 J-5.298 K0.000 F120.00
G0 Z1.000
G0 X-33.712 Y-42.112
G1 X-33.712 Y-42.112 Z-1.500 F120.00
G2 X-32.230 Y-44.818 Z-1.500 I-3.888 J-3.888 K0.000 F120.00
G2 X-42.970 Y-47.182 Z-1.500 I-5.370 J-1.182 K0.000 F120.00
G2 X-33.712 Y-42.112 Z-1.500 I5.370 J1.182 K0.000 F120.00
G0 Z1.000
G0 X-54.212 Y-42.112
G1 X-54.212 Y-42.112 Z-1.500 F120.00
G2 X-56.629 Y-51.298 Z-1.500 I-3.888 J-3.888 K0.000 F120.00
G2 X-63.398 Y-47.471 Z-1.500 I-1.471 J5.298 K0.000 F120.00
G2 X-59.571 Y-40.702 Z-1.500 I5.298 J1.471 K0.000 F120.00
G2 X-54.212 Y-42.112 Z-1.500 I1.471 J-5.298 K0.000 F120.00
G0 Z1.000
G0 X-74.712 Y-42.112
G1 X-74.712 Y-42.112 Z-1.500 F120.00
G2 X-77.129 Y-51.298 Z-1.500 I-3.888 J-3.888 K0.000 F120.00
G2 X-83.898 Y-47.471 Z-1.500 I-1.471 J5.298 K0.000 F120.00
G2 X-80.071 Y-40.702 Z-1.500 I5.298 J1.471 K0.000 F120.00
G2 X-74.712 Y-42.112 Z-1.500 I1.471 J-5.298 K0.000 F120.00
G0 Z1.000
G0 X-74.712 Y-28.112
G1 X-74.712 Y-28.112 Z-1.500 F120.00
G2 X-77.129 Y-37.298 Z-1.500 I-3.888 J-3.888 K0.000 F120.00
G2 X-83.898 Y-33.471 Z-1.500 I-1.471 J5.298 K0.000 F120.00
G2 X-80.071 Y-26.702 Z-1.500 I5.298 J1.471 K0.000 F120.00
G2 X-74.712 Y-28.112 Z-1.500 I1.471 J-5.298 K0.000 F120.00
G0 Z1.000
G0 X-54.212 Y-28.112
G1 X-54.212 Y-28.112 Z-1.500 F120.00
G2 X-56.629 Y-37.298 Z-1.500 I-3.888 J-3.888 K0.000 F120.00
G2 X-63.398 Y-33.471 Z-1.500 I-1.471 J5.298 K0.000 F120.00
G2 X-59.571 Y-26.702 Z-1.500 I5.298 J1.471 K0.000 F120.00
G2 X-54.212 Y-28.112 Z-1.500 I1.471 J-5.298 K0.000 F120.00
G0 Z1.000
G0 X-33.712 Y-28.112
G1 X-33.712 Y-28.112 Z-1.500 F120.00
G2 X-32.230 Y-30.818 Z-1.500 I-3.888 J-3.888 K0.000 F120.00
G2 X-42.970 Y-33.182 Z-1.500 I-5.370 J-1.182 K0.000 F120.00
G2 X-33.712 Y-28.112 Z-1.500 I5.370 J1.182 K0.000 F120.00
G0 Z1.000
G0 X-13.212 Y-28.112
G1 X-13.212 Y-28.112 Z-1.500 F120.00
G2 X-15.629 Y-37.298 Z-1.500 I-3.888 J-3.888 K0.000 F120.00
G2 X-22.398 Y-33.471 Z-1.500 I-1.471 J5.298 K0.000 F120.00
G2 X-18.571 Y-26.702 Z-1.500 I5.298 J1.471 K0.000 F120.00
G2 X-13.212 Y-28.112 Z-1.500 I1.471 J-5.298 K0.000 F120.00
G0 Z1.000
G0 X-13.212 Y-10.512
G1 X-13.212 Y-10.512 Z-1.500 F120.00
G2 X-15.629 Y-19.698 Z-1.500 I-3.888 J-3.888 K0.000 F120.00
G2 X-22.398 Y-15.871 Z-1.500 I-1.471 J5.298 K0.000 F120.00
G2 X-18.571 Y-9.102 Z-1.500 I5.298 J1.471 K0.000 F120.00
G2 X-13.212 Y-10.512 Z-1.500 I1.471 J-5.298 K0.000 F120.00
G0 Z1.000
G0 X-33.712 Y-10.512
G1 X-33.712 Y-10.512 Z-1.500 F120.00
G2 X-32.230 Y-13.218 Z-1.500 I-3.888 J-3.888 K0.000 F120.00
G2 X-42.970 Y-15.582 Z-1.500 I-5.370 J-1.182 K0.000 F120.00
G2 X-33.712 Y-10.512 Z-1.500 I5.370 J1.182 K0.000 F120.00
G0 Z1.000
G0 X-54.212 Y-10.512
G1 X-54.212 Y-10.512 Z-1.500 F120.00
G2 X-56.629 Y-19.698 Z-1.500 I-3.888 J-3.888 K0.000 F120.00
G2 X-63.398 Y-15.871 Z-1.500 I-1.471 J5.298 K0.000 F120.00
G2 X-59.571 Y-9.102 Z-1.500 I5.298 J1.471 K0.000 F120.00
G2 X-54.212 Y-10.512 Z-1.500 I1.471 J-5.298 K0.000 F120.00
G0 Z1.000
G0 X-74.712 Y-10.512
G1 X-74.712 Y-10.512 Z-1.500 F120.00
G2 X-77.129 Y-19.698 Z-1.500 I-3.888 J-3.888 K0.000 F120.00
G2 X-83.898 Y-15.871 Z-1.500 I-1.471 J5.298 K0.000 F120.00
G2 X-80.071 Y-9.102 Z-1.500 I5.298 J1.471 K0.000 F120.00
G2 X-74.712 Y-10.512 Z-1.500 I1.471 J-5.298 K0.000 F120.00
G0 Z1.000
G0 X-74.712 Y3.488
G1 X-74.712 Y3.488 Z-1.500 F120.00
G2 X-77.129 Y-5.698 Z-1.500 I-3.888 J-3.888 K0.000 F120.00
G2 X-83.898 Y-1.871 Z-1.500 I-1.471 J5.298 K0.000 F120.00
G2 X-80.071 Y4.898 Z-1.500 I5.298 J1.471 K0.000 F120.00
G2 X-74.712 Y3.488 Z-1.500 I1.471 J-5.298 K0.000 F120.00
G0 Z1.000
G0 X-54.212 Y3.488
G1 X-54.212 Y3.488 Z-1.500 F120.00
G2 X-56.629 Y-5.698 Z-1.500 I-3.888 J-3.888 K0.000 F120.00
G2 X-63.398 Y-1.871 Z-1.500 I-1.471 J5.298 K0.000 F120.00
G2 X-59.571 Y4.898 Z-1.500 I5.298 J1.471 K0.000 F120.00
G2 X-54.212 Y3.488 Z-1.500 I1.471 J-5.298 K0.000 F120.00
G0 Z1.000
G0 X-33.712 Y3.488
G1 X-33.712 Y3.488 Z-1.500 F120.00
G2 X-36.129 Y-5.698 Z-1.500 I-3.888 J-3.888 K0.000 F120.00
G2 X-42.898 Y-1.871 Z-1.500 I-1.471 J5.298 K0.000 F120.00
G2 X-39.071 Y4.898 Z-1.500 I5.298 J1.471 K0.000 F120.00
G2 X-33.712 Y3.488 Z-1.500 I1.471 J-5.298 K0.000 F120.00
G0 Z1.000
G0 X-13.212 Y3.488
G1 X-13.212 Y3.488 Z-1.500 F120.00
G2 X-15.629 Y-5.698 Z-1.500 I-3.888 J-3.888 K0.000 F120.00
G2 X-22.398 Y-1.871 Z-1.500 I-1.471 J5.298 K0.000 F120.00
G2 X-18.571 Y4.898 Z-1.500 I5.298 J1.471 K0.000 F120.00
G2 X-13.212 Y3.488 Z-1.500 I1.471 J-5.298 K0.000 F120.00
G0 Z1.000
(finish operation: Profile_EdgesOuterJack)
(begin operation: Profile_EdgesUsb)
(Path: Profile_EdgesUsb)
(Profile_EdgesUsb)
(Compensated Tool Path. Diameter: 2.0)
G0 Z1.000
G0 X18.250 Y4.400
G1 X18.250 Y4.400 Z-1.700 F120.00
G1 X18.250 Y-1.186 Z-1.700 F120.00
G1 X16.836 Y-2.600 Z-1.700 F120.00
G1 X11.664 Y-2.600 Z-1.700 F120.00
G1 X10.250 Y-1.186 Z-1.700 F120.00
G1 X10.250 Y4.400 Z-1.700 F120.00
G1 X18.250 Y4.400 Z-1.700 F120.00
G1 X18.250 Y4.400 Z-3.400 F120.00
G1 X18.250 Y-1.186 Z-3.400 F120.00
G1 X16.836 Y-2.600 Z-3.400 F120.00
G1 X11.664 Y-2.600 Z-3.400 F120.00
G1 X10.250 Y-1.186 Z-3.400 F120.00
G1 X10.250 Y4.400 Z-3.400 F120.00
G1 X18.250 Y4.400 Z-3.400 F120.00
G0 Z1.000
G0 X18.250 Y-27.200
G1 X18.250 Y-27.200 Z-1.700 F120.00
G1 X18.250 Y-32.786 Z-1.700 F120.00
G1 X16.836 Y-34.200 Z-1.700 F120.00
G1 X11.664 Y-34.200 Z-1.700 F120.00
G1 X10.250 Y-32.786 Z-1.700 F120.00
G1 X10.250 Y-27.200 Z-1.700 F120.00
G1 X18.250 Y-27.200 Z-1.700 F120.00
G1 X18.250 Y-27.200 Z-3.400 F120.00
G1 X18.250 Y-32.786 Z-3.400 F120.00
G1 X16.836 Y-34.200 Z-3.400 F120.00
G1 X11.664 Y-34.200 Z-3.400 F120.00
G1 X10.250 Y-32.786 Z-3.400 F120.00
G1 X10.250 Y-27.200 Z-3.400 F120.00
G1 X18.250 Y-27.200 Z-3.400 F120.00
G0 Z1.000
(finish operation: Profile_EdgesUsb)
(begin postamble)
M5
G17 G90
M2
